src/16/panel/steadyflow-alert-panel.svg

<svg xmlns="http://www.w3.org/2000/svg" width="16" height="16" version="1.1">
 <defs>
  <style id="current-color-scheme" type="text/css">
   .ColorScheme-Text { color:#dfdfdf; } .ColorScheme-Highlight { color:#4285f4; }
  </style>
 </defs>
 <path style="fill:currentColor" class="ColorScheme-Text" d="M 9,1 C 7.5555739,1.0007178 6.2237323,1.7801139 5.515625,3.0390625 4.0648997,3.2764083 2.9998535,4.5299874 3,6 c 3.782e-4,0.042992 0.00168,0.08597 0.00391,0.1289062 C 1.2369628,6.5832284 0.00132101,8.1755834 0,10 c 0,2.209139 1.790861,4 4,4 L 9.296875,14 7.2480469,11.658203 C 6.6831674,11.011818 7.1415704,10.00095 8,10 l 1,0 0,-3 c 5.52e-5,-0.5522619 0.4477381,-0.9999448 1,-1 l 3,0 c 0.552262,5.52e-5 0.999945,0.4477381 1,1 l 0,3 1,0 c 0.320846,3.55e-4 0.585179,0.142759 0.761719,0.353516 C 15.918639,9.9194699 15.999256,9.4615402 16,9 15.997559,7.1757471 14.761156,5.5842493 12.994141,5.1308594 12.996808,5.0872745 12.998761,5.0436489 13,5 13,2.790861 11.209139,1 9,1 Z"/>
 <path style="fill:currentColor" class="ColorScheme-Highlight" d="m 10,7 0,3.324444 C 9.9999758,10.569894 9.7792277,10.999975 9.5337777,11 L 8,11 11.5,15 15,11 13.478222,11 C 13.232772,10.999976 13.000024,10.569894 13,10.324444 L 13,7 Z"/>
</svg>

<svg xmlns="http://www.w3.org/2000/svg" width="16" height="16"><path d="M9 1a4 4 0 0 0-3.484 2.04 3 3 0 0 0-2.512 3.089A4 4 0 0 0 0 10a4 4 0 0 0 4 4h5.297l-2.049-2.342A1 1 0 0 1 8 10h1V7a1 1 0 0 1 1-1h3a1 1 0 0 1 1 1v3h1a.98.98 0 0 1 .762.354A4 4 0 0 0 16 9a4 4 0 0 0-3.006-3.87c.003-.043.005-.086.006-.13a4 4 0 0 0-4-4z" fill="currentColor" color="#bebebe"/><path d="M10 7v3.324c0 .246-.22.676-.466.676H8l3.5 4 3.5-4h-1.522c-.245 0-.478-.43-.478-.676V7z" fill="currentColor" color="#5294e2"/></svg>
